X:1
L:1/8
M:6/8
K:C
 e/d/ | c2 G cde | f2 e def | gag{g} f2 e |{e} d3 z2 e/d/ | c2 G cde | f2 e def | gaf efd | 
 c3 z2 :: B/c/ | decd ac | egc def | efg afe |{e} d3 z2 e/f/ | g2 a g2 c' | g2 f efg | abc' efd | 
 c4 z :|
